svg/600/sharp/5g_mobiledata_badge-fill.svg

<svg xmlns="http://www.w3.org/2000/svg" width="48" height="48" viewBox="0 -960 960 960"><path d="M25.869-105.869v-748.827h908.827v748.827H25.869ZM766.218-513.13H632.652v66.782h62.13v93.347H559.609v-253.998h206.609V-680H486.609v400h279.609v-233.13ZM193.782-280h249.609v-233.391H266.218v-93.608h177.173V-680H193.782v233.391h176.609v93.608H193.782V-280Z"/></svg>

<svg xmlns="http://www.w3.org/2000/svg" width="48" height="48" viewBox="0 -960 960 960"><path d="M25.87-105.87V-854.7H934.7v748.83H25.87Zm740.35-407.26H632.65v66.78h62.13V-353H559.61v-254h206.61v-73H486.61v400h279.61v-233.13ZM193.78-280h249.61v-233.39H266.22V-607h177.17v-73H193.78v233.39h176.61V-353H193.78v73Z"/></svg>
